F1 Grump/assets/track outlines/Imola - White.svg

<svg width="4255" height="2305" viewBox="0 0 4255 2305" fill="none" xmlns="http://www.w3.org/2000/svg">
<g clip-path="url(#clip0_13_635)">
<path d="M111.999 2305C82.999 2306 64.199 2301 50.859 2289.57C26.629 2268.86 -1.00097 2240.52 -0.000974294 2205.24C0.399026 2192.24 4.29903 2125.75 43.539 2093.68C126.419 2026.08 206.589 1955.26 284.169 1886.68C335.899 1841.01 389.379 1793.74 443.059 1747.98C450.989 1740.98 459.509 1723.43 434.799 1659.34L432.939 1654.56C420.029 1621.22 402.309 1575.45 412.409 1537.04C482.729 1270.04 592.719 1002.31 699.749 741.71L730.129 667.71C742.649 637.14 758.249 599.07 796.709 574.03C825.709 555.18 864.019 535.62 904.599 514.92C944.349 494.66 985.449 473.7 1012.26 455.68C1038.7 437.93 1048.46 408.41 1047.83 396.54C1045.73 358.79 1060.91 321.83 1090.61 292.54C1120.53 263.13 1364.47 215.79 1366.78 215.46C1469.08 201.1 1559.11 191.08 1722.17 172.95L1840.09 159.81C1909.74 152.01 2057.09 158.99 2120.46 170.04C2201.77 184.18 2310.46 206.9 2406.11 226.87C2499.37 246.35 2604.71 268.35 2623.93 268.99C2766.21 268.88 2880 267.64 3000.21 266.31C3094.98 265.31 3191.08 264.23 3303 263.74C3335.27 263.26 3382.52 255.91 3407.88 247.33C3511.5 212.33 3612.72 170.07 3710.55 129.19C3814.92 85.5899 3922.74 40.5499 4034.15 3.99988C4068.15 -7.16012 4138.28 4.75988 4161.63 43.3799C4193.63 96.3799 4222.73 164.07 4250.54 250.16C4266.36 299.23 4239.31 348.16 4181.61 375.01C4152.92 388.35 4122.03 401.8 4089.32 416.07C3998.14 455.83 3894.7 500.91 3851.18 540.22C3815.35 572.6 3762.79 625.4 3707.18 681.22C3626.04 762.69 3534.18 854.96 3455.79 923.32C3381.9 987.78 3311.49 1040.54 3207.86 1088.65C3118.55 1130.12 3012.77 1174.49 2919.37 1213.65C2894.56 1224.08 2870.37 1234.18 2847.5 1243.88C2828.81 1251.78 2808.45 1251 2791.59 1241.69C2778.72 1234.59 2762.64 1219.69 2756.48 1188.69C2603.06 1188.34 2441.08 1193.16 2283.79 1197.83C2100.28 1203.31 1926.38 1208.46 1775.56 1205.42C1747.03 1204.85 1719.56 1193.29 1695.33 1183.07C1689.11 1180.43 1682.94 1177.85 1676.98 1175.55C1665.78 1171.26 1651.98 1170.55 1644.61 1171.47C1640.52 1177.17 1636.01 1183.41 1631.21 1190.06C1601.6 1231.06 1540.03 1316.17 1536.32 1347.06C1535.13 1369.06 1564.49 1487.15 1583.84 1564.98C1605.35 1651.39 1625.57 1732.75 1630.84 1774.98C1637.6 1829.08 1635.01 1911.1 1614.04 1972.59C1596.84 2023 1575.58 2067.48 1560.04 2099.91C1554.13 2112.27 1548.89 2123.21 1544.82 2132.53C1529.07 2168.59 1495.03 2205.19 1491.19 2209.26C1457 2245.5 1394.95 2247.79 1348.87 2243.36C1285.79 2237.23 1236.57 2229.15 1188.93 2221.36C1146.46 2214.36 1102.5 2207.15 1047.46 2201.08C1007.24 2196.63 892.029 2193.47 856.899 2198.08C593.799 2232.42 390.899 2263.98 155.049 2300.61C140.798 2302.92 126.423 2304.39 111.999 2305ZM100.999 2224.9C107.449 2225.15 120.219 2224.63 140.639 2221.48C377.369 2184.86 581.119 2153.31 845.639 2118.95C891.459 2112.95 1015.7 2117.32 1057.26 2121.95C1114.62 2128.34 1159.78 2135.81 1203.39 2143.03C1251.83 2151.03 1297.53 2158.6 1357.85 2164.5C1401.25 2168.72 1425.38 2161.76 1430.44 2156.36C1441.2 2144.95 1461.15 2120.24 1468.9 2102.44C1473.28 2092.44 1478.9 2080.63 1485.22 2067.31C1500.71 2034.87 1519.98 1994.46 1535.66 1948.31C1549.85 1906.55 1555.36 1838.02 1548.66 1785.31C1543.89 1747.73 1523.16 1664.84 1503.02 1584.43C1465.82 1435.8 1449.8 1367.3 1453.32 1337.78C1459 1290.07 1506.32 1221.3 1562.99 1142.78C1569.17 1134.22 1574.87 1126.32 1579.77 1119.4C1605.29 1081.4 1669.67 1084.68 1707.53 1099.27C1714.32 1101.9 1721.3 1104.84 1728.38 1107.83C1745.66 1115.14 1765.23 1123.42 1777.58 1123.69C1926.58 1126.81 2099.7 1121.81 2282.29 1116.52C2445.1 1111.82 2612.85 1106.96 2771.84 1107.78C2784.41 1107.84 2824.6 1112.12 2834.79 1162.2C2852.38 1154.81 2870.56 1147.2 2889.16 1139.38C2982.02 1100.45 3087.16 1056.38 3175.27 1015.49C3270.05 971.49 3335.11 922.66 3403.68 862.82C3479.93 796.27 3570.78 704.97 3651.03 624.31C3710.09 565.13 3761 513.94 3798.58 480C3852.4 431.36 3957.9 385.39 4059.89 341C4092.19 326.94 4122.69 313.64 4150.52 300.73C4151.59 300.2 4177.22 288.18 4174.1 278.55C4148.51 199.73 4122.28 138.31 4093.96 90.9899C4086.31 85.8099 4064.43 81.1399 4056.24 82.9899C3948.51 118.4 3842.41 162.76 3739.69 205.71C3640.69 247.1 3538.31 289.92 3432.14 325.82C3399 337 3343.08 345.9 3302.08 346.53C3190.08 347.11 3094.31 348.24 2999.82 349.35C2879.43 350.76 2765.43 352.12 2622.69 352.35H2621.82C2597.15 351.87 2521.19 336.35 2388.72 308.81C2293.81 289.09 2185.96 266.68 2106.1 252.88C2049.2 243.02 1912.1 236.6 1849.88 243.62L1732.09 256.82C1570.09 274.95 1480.62 284.96 1379.67 299.21C1349.96 303.39 1181.45 342.81 1148.02 356.52C1140.15 365.27 1132.37 377.93 1133.2 393.24C1135.28 432.24 1113.59 490.24 1061.08 525.49C1030.13 546.27 986.819 568.37 944.929 589.73C908.139 608.51 870.089 627.92 844.929 644.33C829.289 654.5 821.189 672.19 809.719 700.1L779.279 774.1C673.089 1031.81 563.999 1296.63 494.809 1558.13C491.189 1571.85 506.079 1610.48 512.439 1626.96L514.329 1631.87C528.399 1668.53 561.269 1754.18 500.329 1808.33C446.599 1854.1 393.449 1901 342.049 1946.4C263.999 2015.31 183.319 2086.55 99.329 2155C94.199 2159.53 85.959 2182.23 84.859 2206.66C85.859 2208.73 89.419 2214.23 101.039 2224.87" fill="white"/>
</g>
<defs>
<clipPath id="clip0_13_635">
<rect width="4255" height="2305" fill="white"/>
</clipPath>
</defs>
</svg>

<svg xmlns="http://www.w3.org/2000/svg" viewBox="0 0 4255 3007.87"><defs><style>.cls-1{fill:#fff;}</style></defs><title>Imola - White</title><g id="Layer_2" data-name="Layer 2"><g id="Layer_1-2" data-name="Layer 1"><path class="cls-1" d="M112,2305c-29,1-47.8-4-61.14-15.43C26.63,2268.86-1,2240.52,0,2205.24c.4-13,4.3-79.49,43.54-111.56,82.88-67.6,163.05-138.42,240.63-207,51.73-45.67,105.21-92.94,158.89-138.7,7.93-7,16.45-24.55-8.26-88.64l-1.86-4.78c-12.91-33.34-30.63-79.11-20.53-117.52,70.32-267,180.31-534.73,287.34-795.33l30.38-74c12.52-30.57,28.12-68.64,66.58-93.68,29-18.85,67.31-38.41,107.89-59.11,39.75-20.26,80.85-41.22,107.66-59.24,26.44-17.75,36.2-47.27,35.57-59.14-2.1-37.75,13.08-74.71,42.78-104,29.92-29.41,273.86-76.75,276.17-77.08,102.3-14.36,192.33-24.38,355.39-42.51l117.92-13.14c69.65-7.8,217-.82,280.37,10.23,81.31,14.14,190,36.86,285.65,56.83,93.26,19.48,198.6,41.48,217.82,42.12,142.28-.11,256.07-1.35,376.28-2.68,94.77-1,190.87-2.08,302.79-2.57,32.27-.48,79.52-7.83,104.88-16.41,103.62-35,204.84-77.26,302.67-118.14C3814.92,85.59,3922.74,40.55,4034.15,4c34-11.16,104.13.76,127.48,39.38,32,53,61.1,120.69,88.91,206.78,15.82,49.07-11.23,98-68.93,124.85-28.69,13.34-59.58,26.79-92.29,41.06-91.18,39.76-194.62,84.84-238.14,124.15-35.83,32.38-88.39,85.18-144,141-81.14,81.47-173,173.74-251.39,242.1-73.89,64.46-144.3,117.22-247.93,165.33-89.31,41.47-195.09,85.84-288.49,125-24.81,10.43-49,20.53-71.87,30.23-18.69,7.9-39.05,7.12-55.91-2.19-12.87-7.1-28.95-22-35.11-53-153.42-.35-315.4,4.47-472.69,9.14-183.51,5.48-357.41,10.63-508.23,7.59-28.53-.57-56-12.13-80.23-22.35-6.22-2.64-12.39-5.22-18.35-7.52-11.2-4.29-25-5-32.37-4.08-4.09,5.7-8.6,11.94-13.4,18.59-29.61,41-91.18,126.11-94.89,157-1.19,22,28.17,140.09,47.52,217.92,21.51,86.41,41.73,167.77,47,210,6.76,54.1,4.17,136.12-16.8,197.61-17.2,50.41-38.46,94.89-54,127.32-5.91,12.36-11.15,23.3-15.22,32.62-15.75,36.06-49.79,72.66-53.63,76.73-34.19,36.24-96.24,38.53-142.32,34.1-63.08-6.13-112.3-14.21-159.94-22-42.47-7-86.43-14.21-141.47-20.28-40.22-4.45-155.43-7.61-190.56-3-263.1,34.34-466,65.9-701.85,102.53A365,365,0,0,1,112,2305M101,2224.9c6.45.25,19.22-.27,39.64-3.42,236.73-36.62,440.48-68.17,705-102.53,45.82-6,170.06-1.63,211.62,3,57.36,6.39,102.52,13.86,146.13,21.08,48.44,8,94.14,15.57,154.46,21.47,43.4,4.22,67.53-2.74,72.59-8.14,10.76-11.41,30.71-36.12,38.46-53.92,4.38-10,10-21.81,16.32-35.13,15.49-32.44,34.76-72.85,50.44-119,14.19-41.76,19.7-110.29,13-163-4.77-37.58-25.5-120.47-45.64-200.88-37.2-148.63-53.22-217.13-49.7-246.65,5.68-47.71,53-116.48,109.67-195,6.18-8.56,11.88-16.46,16.78-23.38,25.52-38,89.9-34.72,127.76-20.13,6.79,2.63,13.77,5.57,20.85,8.56,17.28,7.31,36.85,15.59,49.2,15.86,149,3.12,322.12-1.88,504.71-7.17,162.81-4.7,330.56-9.56,489.55-8.74,12.57.06,52.76,4.34,62.95,54.42,17.59-7.39,35.77-15,54.37-22.82,92.86-38.93,198-83,286.11-123.89,94.78-44,159.84-92.83,228.41-152.67,76.25-66.55,167.1-157.85,247.35-238.51C3710.09,565.13,3761,513.94,3798.58,480c53.82-48.64,159.32-94.61,261.31-139,32.3-14.06,62.8-27.36,90.63-40.27,1.07-.53,26.7-12.55,23.58-22.18-25.59-78.82-51.82-140.24-80.14-187.56-7.65-5.18-29.53-9.85-37.72-8-107.73,35.41-213.83,79.77-316.55,122.72-99,41.39-201.38,84.21-307.55,120.11C3399,337,3343.08,345.9,3302.08,346.53c-112,.58-207.77,1.71-302.26,2.82-120.39,1.41-234.39,2.77-377.13,3l-.87,0c-24.67-.48-100.63-16-233.1-43.54-94.91-19.72-202.76-42.13-282.62-55.93-56.9-9.86-194-16.28-256.22-9.26l-117.79,13.2c-162,18.13-251.47,28.14-352.42,42.39-29.71,4.18-198.22,43.6-231.65,57.31-7.87,8.75-15.65,21.41-14.82,36.72,2.08,39-19.61,97-72.12,132.25-30.95,20.78-74.26,42.88-116.15,64.24-36.79,18.78-74.84,38.19-100,54.6-15.64,10.17-23.74,27.86-35.21,55.77l-30.44,74C673.09,1031.81,564,1296.63,494.81,1558.13c-3.62,13.72,11.27,52.35,17.63,68.83l1.89,4.91c14.07,36.66,46.94,122.31-14,176.46C446.6,1854.1,393.45,1901,342.05,1946.4,264,2015.31,183.32,2086.55,99.33,2155c-5.13,4.53-13.37,27.23-14.47,51.66,1,2.07,4.56,7.57,16.18,18.21"/><path class="cls-1" d="M1457.61,3002.81V2653.08h38.91v349.73Z"/><path class="cls-1" d="M1581.93,3002.81V2653.08h70.25l99.06,295.66,99-295.66h70.25v349.73h-38.91V2694.52h-7.08L1773,2990.18H1729.5l-101.58-295.66h-7.08v308.29Z"/><path class="cls-1" d="M2268.76,2830.47q0,93.51-29.82,135.45t-108.41,41.95q-78.59,0-108.4-43t-29.82-135.2q0-92.22,30.32-137T2130.28,2648q77.32,0,107.9,44.48T2268.76,2830.47Zm-236.53-1q0,76.83,20.22,110.43t78.08,33.61q57.87,0,77.83-32.85t20-110.18q0-77.32-20.72-112.7T2130,2682.39q-56.87,0-77.33,35.13T2032.23,2829.46Z"/><path class="cls-1" d="M2532.57,3002.81H2340V2653.08h38.92v314.86h153.64Z"/><path class="cls-1" d="M2551.26,3002.81l96-349.73h84.91l96,349.73h-38.41l-25.27-90h-149.6l-25.27,90Zm125.34-316.38L2623.54,2878H2756l-53.07-191.55Z"/></g></g></svg>
